X: 1
M:6/8
L:1/8
K:Bb
"Moderato con expressivo"c>AG GAG|FD=E F2 d|c>AG GAc|d=eg f2 c|
d>gg g^f/2g/2a|g=e/2^f/2g =fd/2e/2f|
e/2f/2e/2d/2c d/2_e/2d/2c/2A|c/2d/2c/2B/2A/2G/2 ^FDC|
E|F>ED CB,A,|G,>GG G,>GG|Gcc c/2d/2c/2B/2A/2G/2|Add d2 =e|
fcA fcA|Ggg g^fg|
a/2b/2a/2g/2^f/2a/2 g/2a/2g/2=f/2e/2g/2|
f/2g/2f/2=e/2d/2c/2 d/2_e/2d/2c/2B/2A/2|
fAG ^FGA|fAG ^FGA|dGG ^FDF|G3-G3||

